src/img/circle.svg

<svg xmlns="http://www.w3.org/2000/svg" width="553" height="554" fill="#fff" fill-rule="evenodd" xmlns:v="https://vecta.io/nano"><path d="M276.43 39.464c10.881 0 19.699-8.833 19.699-19.732S287.305.001 276.43.001C200.098.001 130.99 30.993 80.965 81.1S0 200.425 0 276.883s30.94 145.682 80.965 195.789 119.133 81.099 195.465 81.099c11.897 0 23.954-.822 36.1-2.415 12.281-1.61 24.108-3.96 35.438-6.997 10.496-2.807 16.732-13.611 13.93-24.125-2.807-10.514-13.587-16.76-24.09-13.953-10.083 2.699-20.225 4.742-30.361 6.068-9.817 1.29-20.166 1.953-31.017 1.953-65.457 0-124.713-26.575-167.604-69.537-42.891-42.968-69.422-102.323-69.422-167.882 0-65.565 26.531-124.919 69.422-167.882S210.973 39.464 276.43 39.464zm167.603 405.307c-7.695 7.702-7.695 20.199 0 27.907a19.69 19.69 0 0 0 27.861 0c25.403-25.444 45.917-55.956 59.984-89.967 13.523-32.697 20.981-68.442 20.981-105.822 0-10.899-8.818-19.731-19.699-19.731s-19.704 8.826-19.704 19.725c0 32.282-6.372 62.972-17.903 90.868-11.956 28.925-29.587 55.045-51.52 77.02z"/><path d="M212.511 515.8c-5.248-1.403-10.639 1.716-12.045 6.973s1.714 10.663 6.962 12.066c11.017 2.948 22.424 5.221 34.167 6.766 11.561 1.516 23.192 2.303 34.83 2.303 73.612 0 140.257-29.884 188.496-78.204 48.246-48.332 78.087-115.087 78.087-188.821 0-61.06-20.485-117.342-54.942-162.335-35.249-46.029-85.114-80.223-142.639-95.621-5.248-1.403-10.644 1.723-12.045 6.974-1.401 5.257 1.714 10.656 6.962 12.065 53.287 14.267 99.464 45.928 132.095 88.529 31.904 41.66 50.87 93.798 50.87 150.388 0 68.288-27.637 130.106-72.307 174.861s-106.396 72.427-174.571 72.427c-11.112 0-21.886-.705-32.288-2.072-10.674-1.398-21.236-3.517-31.632-6.299zm109.964-65.239c5.249-1.403 8.369-6.808 6.963-12.065s-6.797-8.383-12.045-6.974c-6.697 1.794-13.47 3.155-20.273 4.043-6.607.865-13.516 1.32-20.697 1.32-43.695 0-83.253-17.742-111.888-46.419s-46.342-68.306-46.342-112.067c0-36.284 12.151-69.703 32.595-96.397 20.91-27.303 50.509-47.597 84.659-56.738 5.248-1.403 8.369-6.808 6.968-12.065s-6.797-8.383-12.045-6.974c-38.393 10.277-71.674 33.105-95.203 63.83-23.003 30.033-36.673 67.596-36.673 108.344 0 49.214 19.917 93.768 52.111 126.021s76.685 52.203 125.818 52.203c7.707 0 15.473-.533 23.239-1.545 7.878-1.042 15.491-2.558 22.813-4.517zm.001-344.342c38.387 10.277 71.673 33.105 95.202 63.831 23.003 30.032 36.674 67.595 36.674 108.343 0 7.72-.526 15.499-1.543 23.278-1.034 7.885-2.547 15.51-4.504 22.845-1.4 5.257-6.796 8.383-12.045 6.974s-8.369-6.808-6.962-12.065c1.791-6.707 3.15-13.492 4.043-20.3.862-6.624 1.312-13.539 1.312-20.738 0-36.284-12.152-69.703-32.596-96.397-20.91-27.303-50.509-47.597-84.658-56.738-5.249-1.403-8.369-6.808-6.969-12.065 1.407-5.251 6.797-8.371 12.046-6.968z"/></svg>

<svg width="553" height="554" viewBox="0 0 553 554" fill="none" xmlns="http://www.w3.org/2000/svg">
<path fill-rule="evenodd" clip-rule="evenodd" d="M276.43 39.4642C287.311 39.4642 296.129 30.6314 296.129 19.7325C296.129 8.83367 287.305 0.00090392 276.43 0.000903444C200.098 0.000900108 130.99 30.9925 80.965 81.1001C30.9404 131.208 7.64804e-05 200.425 7.31383e-05 276.883C6.97962e-05 353.341 30.9404 422.565 80.965 472.672C130.99 522.78 200.098 553.771 276.43 553.771C288.327 553.771 300.384 552.949 312.53 551.356C324.811 549.746 336.638 547.396 347.968 544.359C358.464 541.552 364.7 530.748 361.898 520.234C359.091 509.72 348.311 503.474 337.808 506.281C327.725 508.98 317.583 511.023 307.447 512.349C297.63 513.639 287.281 514.302 276.43 514.302C210.973 514.302 151.717 487.727 108.826 444.765C65.9351 401.797 39.4039 342.442 39.4039 276.883C39.4039 211.318 65.9351 151.964 108.826 109.001C151.717 66.0394 210.973 39.4642 276.43 39.4642ZM444.033 444.771C436.338 452.473 436.338 464.97 444.033 472.678C451.729 480.38 464.199 480.38 471.894 472.678C497.297 447.234 517.811 416.722 531.878 382.711C545.401 350.014 552.859 314.269 552.859 276.889C552.859 265.99 544.041 257.158 533.16 257.158C522.28 257.158 513.456 265.984 513.456 276.883C513.456 309.165 507.084 339.855 495.553 367.751C483.597 396.676 465.966 422.796 444.033 444.771Z" fill="white"/>
<path fill-rule="evenodd" clip-rule="evenodd" d="M212.511 515.8C207.263 514.397 201.872 517.516 200.466 522.773C199.059 528.031 202.18 533.436 207.428 534.839C218.445 537.787 229.852 540.06 241.595 541.605C253.156 543.121 264.787 543.908 276.425 543.908C350.037 543.908 416.682 514.024 464.921 465.704C513.167 417.372 543.008 350.617 543.008 276.883C543.008 215.823 522.523 159.541 488.066 114.548C452.817 68.5195 402.952 34.3251 345.427 18.9269C340.179 17.5239 334.783 20.6497 333.382 25.9008C331.981 31.1579 335.096 36.557 340.344 37.966C393.631 52.2334 439.808 83.894 472.439 126.495C504.343 168.155 523.309 220.293 523.309 276.883C523.309 345.171 495.672 406.989 451.002 451.744C406.327 496.494 344.606 524.171 276.431 524.171C265.319 524.171 254.545 523.466 244.143 522.099C233.469 520.701 222.907 518.582 212.511 515.8Z" fill="white"/>
<path fill-rule="evenodd" clip-rule="evenodd" d="M322.475 450.561C327.724 449.158 330.844 443.753 329.438 438.496C328.037 433.239 322.641 430.113 317.393 431.522C310.696 433.316 303.923 434.677 297.12 435.565C290.513 436.43 283.604 436.885 276.423 436.885C232.728 436.885 193.17 419.143 164.535 390.466C135.9 361.789 118.193 322.16 118.193 278.399C118.193 242.115 130.344 208.696 150.788 182.002C171.698 154.699 201.297 134.405 235.447 125.264C240.695 123.861 243.816 118.456 242.415 113.199C241.014 107.942 235.618 104.816 230.37 106.225C191.977 116.502 158.696 139.33 135.167 170.055C112.164 200.088 98.4937 237.651 98.4937 278.399C98.4937 327.613 118.411 372.167 150.605 404.42C182.804 436.672 227.29 456.623 276.423 456.623C284.13 456.623 291.896 456.09 299.662 455.078C307.54 454.036 315.153 452.52 322.475 450.561ZM322.476 106.219C360.863 116.496 394.149 139.324 417.678 170.05C440.681 200.082 454.352 237.645 454.352 278.393C454.352 286.113 453.826 293.892 452.809 301.671C451.775 309.556 450.262 317.181 448.305 324.516C446.905 329.773 441.509 332.899 436.26 331.49C431.012 330.081 427.891 324.682 429.298 319.425C431.089 312.718 432.448 305.933 433.341 299.125C434.203 292.501 434.653 285.586 434.653 278.387C434.653 242.103 422.501 208.684 402.057 181.99C381.147 154.687 351.548 134.393 317.399 125.252C312.15 123.849 309.03 118.444 310.43 113.187C311.837 107.936 317.227 104.816 322.476 106.219Z" fill="white"/>
</svg>
